src/actions/16/mail-forward-custom.svg

<svg xmlns="http://www.w3.org/2000/svg" viewBox="0 0 16 16">
  <defs id="defs3051">
    <style type="text/css" id="current-color-scheme">
      .ColorScheme-Text {
        color:#2e3440;
      }
      </style>
  </defs>
 <path style="fill:currentColor;fill-opacity:1;stroke:none" 
     d="M 8.484375 2 L 7.7558594 2.7265625 L 11.996094 6.9550781 L 2 7 L 2 8 L 12.060547 7.9824219 L 7.7558594 12.273438 L 8.484375 13 L 14 7.5 L 8.484375 2 z M 4.5 9 L 4.0214844 10.345703 L 2.7324219 9.7324219 L 3.3457031 11.021484 L 2 11.5 L 3.3457031 11.978516 L 2.7324219 13.267578 L 4.0214844 12.654297 L 4.5 14 L 4.9785156 12.654297 L 6.2675781 13.267578 L 5.6542969 11.978516 L 7 11.5 L 5.6542969 11.021484 L 6.2675781 9.7324219 L 4.9785156 10.345703 L 4.5 9 z "
     class="ColorScheme-Text"
     />
</svg>

<svg viewBox="0 0 16 16" xmlns="http://www.w3.org/2000/svg">
 <defs>
  <style type="text/css">.ColorScheme-Text {
        color:#2e3440;
      }</style>
 </defs>
 <path class="ColorScheme-Text" d="m8.4844 2-0.72852 0.72656 4.2402 4.2285-9.9961 0.044922v1l10.061-0.017578-4.3047 4.291 0.72852 0.72656 5.5156-5.5-5.5156-5.5zm-3.9844 7-0.47852 1.3457-1.2891-0.61328 0.61328 1.2891-1.3457 0.47852 1.3457 0.47852-0.61328 1.2891 1.2891-0.61328 0.47852 1.3457 0.47852-1.3457 1.2891 0.61328-0.61328-1.2891 1.3457-0.47852-1.3457-0.47852 0.61328-1.2891-1.2891 0.61328-0.47852-1.3457z" fill="currentColor"/>
</svg>
